fig/Cmap-Car.svg

<?xml version="1.0" encoding="UTF-8" standalone="no"?>
<!DOCTYPE svg PUBLIC "-//W3C//DTD SVG 1.1//EN" "http://www.w3.org/Graphics/SVG/1.1/DTD/svg11.dtd">
<svg version="1.1" xmlns="http://www.w3.org/2000/svg" xmlns:xlink="http://www.w3.org/1999/xlink" width="1295px" height="539px" style="background-color:#ffffff;">

<!-- Connection Lines -->
    <g>
        <path d="M620 108L596.9738216156317 81.10471160735572" stroke="#000000" fill="none" stroke-width="1" stroke-dasharray="none" />
        <path d="M590 73L601.1033784403924 77.55137201395704L596.9738216156317 81.10471160735572L592.8442647908711 84.65805120075441Z" stroke="none" fill="#000000" stroke-width="1.5" stroke-dasharray="none" />
    </g>
    <g>
        <path d="M663 158L633 123" stroke="#000000" fill="none" stroke-width="1" stroke-dasharray="none" />
    </g>
    <g>
        <path d="M596 173L638.3088847865106 172.14350490219448" stroke="#000000" fill="none" stroke-width="1" stroke-dasharray="none" />
        <path d="M649 172L638.382004186306 177.5909001869444L638.3088847865106 172.14350490219448L638.2357653867153 166.6961096174446Z" stroke="none" fill="#000000" stroke-width="1.5" stroke-dasharray="none" />
    </g>
    <g>
        <path d="M498 174L553 173" stroke="#000000" fill="none" stroke-width="1" stroke-dasharray="none" />
    </g>
    <g>
        <path d="M356 203L325.3855292461874 210.45808724743665" stroke="#000000" fill="none" stroke-width="1" stroke-dasharray="none" />
        <path d="M315 213L324.0903600083619 205.16639579003547L325.3855292461874 210.45808724743665L326.68069848401285 215.7497787048378Z" stroke="none" fill="#000000" stroke-width="1.5" stroke-dasharray="none" />
    </g>
    <g>
        <path d="M449 180L417 188" stroke="#000000" fill="none" stroke-width="1" stroke-dasharray="none" />
    </g>
    <g>
        <path d="M497 116L482.9543039210508 150.06601697882363" stroke="#000000" fill="none" stroke-width="1" stroke-dasharray="none" />
        <path d="M479 160L477.89268675691585 148.05119849601263L482.9543039210508 150.06601697882363L488.0159210851857 152.08083546163462Z" stroke="none" fill="#000000" stroke-width="1.5" stroke-dasharray="none" />
    </g>
    <g>
        <path d="M563 70L512 101" stroke="#000000" fill="none" stroke-width="1" stroke-dasharray="none" />
    </g>

<!-- Linking Phrases -->
    <g>
        <g>
            <text x="579px" y="120px" stroke="none" fill="#000000" stroke-width="1" stroke-dasharray="none" alignment-baseline="auto" text-anchor="start" text-decoration="normal" font-weight="normal" font-style="normal" font-size="8pt" font-family="Verdana">
                <tspan>is</tspan><tspan fill="none">t</tspan><tspan>needed</tspan><tspan fill="none">t</tspan><tspan>to</tspan><tspan fill="none">t</tspan><tspan>start</tspan>
            </text>
        </g>
    </g>
    <g>
        <g>
            <text x="554px" y="177px" stroke="none" fill="#000000" stroke-width="1" stroke-dasharray="none" alignment-baseline="auto" text-anchor="start" text-decoration="normal" font-weight="normal" font-style="normal" font-size="8pt" font-family="Verdana">
                <tspan>charges</tspan>
            </text>
        </g>
    </g>
    <g>
        <g>
            <text x="329px" y="200px" stroke="none" fill="#000000" stroke-width="1" stroke-dasharray="none" alignment-baseline="auto" text-anchor="start" text-decoration="normal" font-weight="normal" font-style="normal" font-size="8pt" font-family="Verdana">
                <tspan>requires</tspan><tspan fill="none">t</tspan><tspan>energy</tspan><tspan fill="none">t</tspan><tspan>from</tspan>
            </text>
        </g>
    </g>
    <g>
        <g>
            <text x="462px" y="113px" stroke="none" fill="#000000" stroke-width="1" stroke-dasharray="none" alignment-baseline="auto" text-anchor="start" text-decoration="normal" font-weight="normal" font-style="normal" font-size="8pt" font-family="Verdana">
                <tspan>is</tspan><tspan fill="none">t</tspan><tspan>powered</tspan><tspan fill="none">t</tspan><tspan>by</tspan>
            </text>
        </g>
    </g>

<!-- Concepts -->
    <g>
        <rect x="649px" y="158px" rx="8" ry="8" width="52px" height="27px" stroke="none" fill="#edf4f6" stroke-width="0" />
        <rect x="649px" y="158px" rx="8" ry="8" width="52px" height="27px" stroke="#000000" fill="none" stroke-width="1" stroke-dasharray="none" />
        <g>
            <text x="656px" y="176px" stroke="none" fill="#000000" stroke-width="1" stroke-dasharray="none" alignment-baseline="auto" text-anchor="start" text-decoration="normal" font-weight="normal" font-style="normal" font-size="8pt" font-family="Verdana">
                <tspan>battery</tspan>
            </text>
        </g>
    </g>
    <g>
        <rect x="282px" y="203px" rx="8" ry="8" width="33px" height="27px" stroke="none" fill="#edf4f6" stroke-width="0" />
        <rect x="282px" y="203px" rx="8" ry="8" width="33px" height="27px" stroke="#000000" fill="none" stroke-width="1" stroke-dasharray="none" />
        <g>
            <text x="289px" y="221px" stroke="none" fill="#000000" stroke-width="1" stroke-dasharray="none" alignment-baseline="auto" text-anchor="start" text-decoration="normal" font-weight="normal" font-style="normal" font-size="8pt" font-family="Verdana">
                <tspan>fuel</tspan>
            </text>
        </g>
    </g>
    <g>
        <rect x="449px" y="160px" rx="8" ry="8" width="49px" height="27px" stroke="none" fill="#edf4f6" stroke-width="0" />
        <rect x="449px" y="160px" rx="8" ry="8" width="49px" height="27px" stroke="#000000" fill="none" stroke-width="1" stroke-dasharray="none" />
        <g>
            <text x="456px" y="178px" stroke="none" fill="#000000" stroke-width="1" stroke-dasharray="none" alignment-baseline="auto" text-anchor="start" text-decoration="normal" font-weight="normal" font-style="normal" font-size="8pt" font-family="Verdana">
                <tspan>engine</tspan>
            </text>
        </g>
    </g>
    <g>
        <rect x="563px" y="46px" rx="8" ry="8" width="32px" height="27px" stroke="none" fill="#edf4f6" stroke-width="0" />
        <rect x="563px" y="46px" rx="8" ry="8" width="32px" height="27px" stroke="#000000" fill="none" stroke-width="1" stroke-dasharray="none" />
        <g>
            <text x="570px" y="64px" stroke="none" fill="#000000" stroke-width="1" stroke-dasharray="none" alignment-baseline="auto" text-anchor="start" text-decoration="normal" font-weight="normal" font-style="normal" font-size="8pt" font-family="Verdana">
                <tspan>Car</tspan>
            </text>
        </g>
    </g>
</svg>

<?xml version="1.0" encoding="UTF-8" standalone="no"?>
<svg
   xmlns:dc="http://purl.org/dc/elements/1.1/"
   xmlns:cc="http://creativecommons.org/ns#"
   xmlns:rdf="http://www.w3.org/1999/02/22-rdf-syntax-ns#"
   xmlns:svg="http://www.w3.org/2000/svg"
   xmlns="http://www.w3.org/2000/svg"
   version="1.1"
   width="460"
   height="225"
   id="svg999">
  <metadata
     id="metadata1005">
    <rdf:RDF>
      <cc:Work
         rdf:about="">
        <dc:format>image/svg+xml</dc:format>
        <dc:type
           rdf:resource="http://purl.org/dc/dcmitype/StillImage" />
        <dc:title></dc:title>
      </cc:Work>
    </rdf:RDF>
  </metadata>
  <defs
     id="defs1003" />
  <!-- Connection Lines -->
  <g
     id="g855"
     transform="translate(-261.5,-25.5)">
    <path
       d="M 620,108 596.97382,81.104712"
       stroke="#000000"
       fill="none"
       stroke-width="1"
       stroke-dasharray="none"
       id="path851" />
    <path
       d="m 590,73 11.10338,4.551372 -4.12956,3.55334 -4.12956,3.553339 z"
       stroke="none"
       fill="#000000"
       stroke-width="1.5"
       stroke-dasharray="none"
       id="path853" />
  </g>
  <g
     id="g859"
     transform="translate(-261.5,-25.5)">
    <path
       d="M 663,158 633,123"
       stroke="#000000"
       fill="none"
       stroke-width="1"
       stroke-dasharray="none"
       id="path857" />
  </g>
  <g
     id="g865"
     transform="translate(-261.5,-25.5)">
    <path
       d="m 596,173 42.30888,-0.8565"
       stroke="#000000"
       fill="none"
       stroke-width="1"
       stroke-dasharray="none"
       id="path861" />
    <path
       d="m 649,172 -10.618,5.5909 -0.0731,-5.4474 -0.0731,-5.44739 z"
       stroke="none"
       fill="#000000"
       stroke-width="1.5"
       stroke-dasharray="none"
       id="path863" />
  </g>
  <g
     id="g869"
     transform="translate(-261.5,-25.5)">
    <path
       d="m 498,174 55,-1"
       stroke="#000000"
       fill="none"
       stroke-width="1"
       stroke-dasharray="none"
       id="path867" />
  </g>
  <g
     id="g875"
     transform="translate(-261.5,-25.5)">
    <path
       d="m 356,203 -30.61447,7.45809"
       stroke="#000000"
       fill="none"
       stroke-width="1"
       stroke-dasharray="none"
       id="path871" />
    <path
       d="m 315,213 9.09036,-7.8336 1.29517,5.29169 1.29517,5.29169 z"
       stroke="none"
       fill="#000000"
       stroke-width="1.5"
       stroke-dasharray="none"
       id="path873" />
  </g>
  <g
     id="g879"
     transform="translate(-261.5,-25.5)">
    <path
       d="m 449,180 -32,8"
       stroke="#000000"
       fill="none"
       stroke-width="1"
       stroke-dasharray="none"
       id="path877" />
  </g>
  <g
     id="g885"
     transform="translate(-261.5,-25.5)">
    <path
       d="m 497,116 -14.0457,34.06602"
       stroke="#000000"
       fill="none"
       stroke-width="1"
       stroke-dasharray="none"
       id="path881" />
    <path
       d="m 479,160 -1.10731,-11.9488 5.06161,2.01482 5.06162,2.01482 z"
       stroke="none"
       fill="#000000"
       stroke-width="1.5"
       stroke-dasharray="none"
       id="path883" />
  </g>
  <g
     id="g889"
     transform="translate(-261.5,-25.5)">
    <path
       d="m 563,70 -51,31"
       stroke="#000000"
       fill="none"
       stroke-width="1"
       stroke-dasharray="none"
       id="path887" />
  </g>
  <!-- Linking Phrases -->
  <g
     id="g909"
     transform="translate(-261.5,-25.5)">
    <g
       id="g907">
      <text
         x="579"
         y="120"
         stroke="none"
         fill="#000000"
         stroke-width="1"
         stroke-dasharray="none"
         alignment-baseline="auto"
         text-anchor="start"
         text-decoration="normal"
         font-weight="normal"
         font-style="normal"
         font-size="10.6667px"
         font-family="Verdana"
         id="text905"><tspan
           id="tspan891">is</tspan><tspan
           fill="none"
           id="tspan893">t</tspan><tspan
           id="tspan895">needed</tspan><tspan
           fill="none"
           id="tspan897">t</tspan><tspan
           id="tspan899">to</tspan><tspan
           fill="none"
           id="tspan901">t</tspan><tspan
           id="tspan903">start</tspan></text>
    </g>
  </g>
  <g
     id="g917"
     transform="translate(-261.5,-25.5)">
    <g
       id="g915">
      <text
         x="554"
         y="177"
         stroke="none"
         fill="#000000"
         stroke-width="1"
         stroke-dasharray="none"
         alignment-baseline="auto"
         text-anchor="start"
         text-decoration="normal"
         font-weight="normal"
         font-style="normal"
         font-size="10.6667px"
         font-family="Verdana"
         id="text913"><tspan
           id="tspan911">charges</tspan></text>
    </g>
  </g>
  <g
     id="g933"
     transform="translate(-261.5,-25.5)">
    <g
       id="g931">
      <text
         x="329"
         y="200"
         stroke="none"
         fill="#000000"
         stroke-width="1"
         stroke-dasharray="none"
         alignment-baseline="auto"
         text-anchor="start"
         text-decoration="normal"
         font-weight="normal"
         font-style="normal"
         font-size="10.6667px"
         font-family="Verdana"
         id="text929"><tspan
           id="tspan919">requires</tspan><tspan
           fill="none"
           id="tspan921">t</tspan><tspan
           id="tspan923">energy</tspan><tspan
           fill="none"
           id="tspan925">t</tspan><tspan
           id="tspan927">from</tspan></text>
    </g>
  </g>
  <g
     id="g949"
     transform="translate(-261.5,-25.5)">
    <g
       id="g947">
      <text
         x="462"
         y="113"
         stroke="none"
         fill="#000000"
         stroke-width="1"
         stroke-dasharray="none"
         alignment-baseline="auto"
         text-anchor="start"
         text-decoration="normal"
         font-weight="normal"
         font-style="normal"
         font-size="10.6667px"
         font-family="Verdana"
         id="text945"><tspan
           id="tspan935">is</tspan><tspan
           fill="none"
           id="tspan937">t</tspan><tspan
           id="tspan939">powered</tspan><tspan
           fill="none"
           id="tspan941">t</tspan><tspan
           id="tspan943">by</tspan></text>
    </g>
  </g>
  <!-- Concepts -->
  <g
     id="g961"
     transform="translate(-261.5,-25.5)">
    <rect
       x="649"
       y="158"
       rx="8"
       ry="8"
       width="52"
       height="27"
       stroke="none"
       fill="#edf4f6"
       stroke-width="0"
       id="rect951" />
    <rect
       x="649"
       y="158"
       rx="8"
       ry="8"
       width="52"
       height="27"
       stroke="#000000"
       fill="none"
       stroke-width="1"
       stroke-dasharray="none"
       id="rect953" />
    <g
       id="g959">
      <text
         x="656"
         y="176"
         stroke="none"
         fill="#000000"
         stroke-width="1"
         stroke-dasharray="none"
         alignment-baseline="auto"
         text-anchor="start"
         text-decoration="normal"
         font-weight="normal"
         font-style="normal"
         font-size="10.6667px"
         font-family="Verdana"
         id="text957"><tspan
           id="tspan955">battery</tspan></text>
    </g>
  </g>
  <g
     id="g973"
     transform="translate(-261.5,-25.5)">
    <rect
       x="282"
       y="203"
       rx="8"
       ry="8"
       width="33"
       height="27"
       stroke="none"
       fill="#edf4f6"
       stroke-width="0"
       id="rect963" />
    <rect
       x="282"
       y="203"
       rx="8"
       ry="8"
       width="33"
       height="27"
       stroke="#000000"
       fill="none"
       stroke-width="1"
       stroke-dasharray="none"
       id="rect965" />
    <g
       id="g971">
      <text
         x="289"
         y="221"
         stroke="none"
         fill="#000000"
         stroke-width="1"
         stroke-dasharray="none"
         alignment-baseline="auto"
         text-anchor="start"
         text-decoration="normal"
         font-weight="normal"
         font-style="normal"
         font-size="10.6667px"
         font-family="Verdana"
         id="text969"><tspan
           id="tspan967">fuel</tspan></text>
    </g>
  </g>
  <g
     id="g985"
     transform="translate(-261.5,-25.5)">
    <rect
       x="449"
       y="160"
       rx="8"
       ry="8"
       width="49"
       height="27"
       stroke="none"
       fill="#edf4f6"
       stroke-width="0"
       id="rect975" />
    <rect
       x="449"
       y="160"
       rx="8"
       ry="8"
       width="49"
       height="27"
       stroke="#000000"
       fill="none"
       stroke-width="1"
       stroke-dasharray="none"
       id="rect977" />
    <g
       id="g983">
      <text
         x="456"
         y="178"
         stroke="none"
         fill="#000000"
         stroke-width="1"
         stroke-dasharray="none"
         alignment-baseline="auto"
         text-anchor="start"
         text-decoration="normal"
         font-weight="normal"
         font-style="normal"
         font-size="10.6667px"
         font-family="Verdana"
         id="text981"><tspan
           id="tspan979">engine</tspan></text>
    </g>
  </g>
  <g
     id="g997"
     transform="translate(-261.5,-25.5)">
    <rect
       x="563"
       y="46"
       rx="8"
       ry="8"
       width="32"
       height="27"
       stroke="none"
       fill="#edf4f6"
       stroke-width="0"
       id="rect987" />
    <rect
       x="563"
       y="46"
       rx="8"
       ry="8"
       width="32"
       height="27"
       stroke="#000000"
       fill="none"
       stroke-width="1"
       stroke-dasharray="none"
       id="rect989" />
    <g
       id="g995">
      <text
         x="570"
         y="64"
         stroke="none"
         fill="#000000"
         stroke-width="1"
         stroke-dasharray="none"
         alignment-baseline="auto"
         text-anchor="start"
         text-decoration="normal"
         font-weight="normal"
         font-style="normal"
         font-size="10.6667px"
         font-family="Verdana"
         id="text993"><tspan
           id="tspan991">Car</tspan></text>
    </g>
  </g>
</svg>
